X:1
T:G Major Jeremiah Ingalls, 1805
T:Richard Burdsall, 1797; revised by American authors and by Jeremiah Ingalls, 1805 11 11. 12 12. 13 11.
T:Free Grace
T:Transcribed from  Ingalls' Christian Harmony, 1805.
%%score [ 1 2 3 ]
L:1/8
Q:1/4=100
M:2/4
K:G
V:1 treble nm="Tr." snm="Tr."
V:2 treble-8 nm="T." snm="T."
V:3 bass nm="B." snm="B."
V:1
"^1. The  voice  of   free       grace       cries    'scape    to  the  mountains,   For   Adam's   lost         race,      Christ   o  –   pened    a       fountain" Bc | %1
 d2 d2 | dc/d/ e2- | e2 dc | Bc BA | GF G2 | G2 Bc | d2 d2 | dc/d/ e2- | e2 dc | Bc BA | dc B2 | %12
 B4 | %13
 z2"^1. For sins and transgressions,  and  eve – ry       pol –  lu – tion.         The  blood  it  flows  freely  In  streams of sal –  va  – tion.         Hal–le–" d2 | %14
 g2 d2 | e2 B2 | B4 | B2 cd | ed cB | c2 B2 | z2 GA | B2 G2 | A2 A2 | A4 | B2 cd | e2 B2 | e2 d2- | %27
 d2"^Chorus" Bc | %28
"^–lu–jah   to  the  Lamb,     who  purchased   our pardon,       We'll   praise him  a      –    gain        When  we   pass     o    –      ver    Jor – dan." d2 d2 | %29
 dd e2- | e2 dc | B2 B2 | A2 d2 | d !fermata!z Bc | d2 d2 | dc/d/ e2- | e2 dc | Bc BA | dc B2 | %39
 B4 |] %40
V:2
"^2. This  fountain   is           wide      where    all       may    find   par–don,  From  Jesus’  side      flows         a        plen – teous   re – demp–tion:" GA | %1
 B2 B2 | AB c2- | c2 Bc | de dc | BA G2 | G2 GA | B2 B2 | AB c2- | c2 Bc | de dc | BA G2 | G4 | %13
 z2"^2. Though sins they are rai – sed  as   high   as    a    mountain,         The blood it will cleanse you,  that flows from this fountain.      Hal–le–" Bc | %14
 d2 B2 | c2 d2 | d4 | d2 ef | gf ed | e2 d2 | z2 Bc | d2 B2 | ^c2 d2 | d4 | d2 ef | g2 d2 | %26
 ef g2- | g2 dc | %28
"^–lu–jah   to  the  Lamb,     who  purchased   our pardon,       We'll   praise him  a      –    gain        When  we   pass     o    –      ver    Jor – dan." B2 B2 | %29
 AB c2- | c2 dB | G2 G2 | d2 A2 | A !fermata!z GA | B2 B2 | AB c2- | c2 Bc | de dc | BA G2 | G4 |] %40
V:3
"^3.  O!       Je–sus,   ride        on,        thy     king – dom    is       glorious,   O’er   death,   hell   and   sin,     will    make    us     vic  –  to – rious;\n4.  On      Zi–on    we          stand,   we  have  gained   the  blest  shore!    With   harps  in  our   hands,     we   will    praise    ev  –  er  –  more." G,2 | %1
 G,2 G,2 | D,2 C,2- | C,2 D,2 | D,2 D,2 | D,2 G,,2 | G,,2 D,2 | G,2 G,2 | D,2 C,2- | C,2 D,2 | %10
 D,2 D,2 | D,2 G,,2 | G,,4 | %13
 z2"^3.  Thy name shall be prais'd in  the  great  con – gre  –  ga – tion,     And  saints  shall  rejoice  in  a – scri – bing  sal – va – tion.\n4.  We   view the blest fields on  the  bank   of     the       ri  –  ver,       And   sing    Hal – le – lu–jahs  for  ev – er     and   ev –  er." D,2 | %14
 G,2 G,2 | C,2 G,2 | G,4 | G,2 C,2 | C,2 C,2 | C,2 G,2- | G,2 G,2 | G,2 G,2 | A,2 D,2 | D,4 | %24
 G,2 C2 | C2 B,2 | C2 B,2- | B,2"^Hal–le–" G,G, | %28
"^–lu–jah   to  the  Lamb,     who  purchased   our pardon,       We'll   praise him  a      –    gain        When  we   pass     o    –      ver    Jor – dan." G,2 G,2 | %29
 D,D, C,2- | C,2 D,2 | E,2 E,2 | D,2 D,2 | D, !fermata!z D,2 | G,2 G,2 | D,2 C,2- | C,2 B,,C, | %37
 D,2 D,2 | D,2 G,,2 | G,,4 |] %40

